packages/sights/assets/overlays/oIk8RQ3w.svg

<svg width="500" height="375" viewBox="0 0 500 375" fill="none" xmlns="http://www.w3.org/2000/svg">
<path d="M493 283.426L473.87 254.536C454.69 196.296 401.37 94.9456 401.37 94.9456C348.17 33.9456 319.28 32.1156 319.28 32.1156C241.78 18.3556 177.11 32.1156 177.11 32.1156C132.63 43.1256 88.83 101.596 88.83 101.596C81.27 117.416 19.83 257.286 19.83 257.286L7 274.256" stroke="white" stroke-miterlimit="10"/>
<path d="M97.7799 101.826C97.7799 101.826 362.85 107.326 396.78 101.826C396.78 101.826 467.41 244.446 481.17 286.186C481.17 286.186 414.53 345.796 249.96 349.236C249.96 349.236 59.2499 343.506 13.1699 283.426C13.1699 283.426 90.8999 111.686 97.7799 101.826Z" stroke="white" stroke-miterlimit="10"/>
<path d="M455.551 207.596L459.841 188.276C459.841 188.276 470.591 177.486 492.961 182.276" stroke="white" stroke-miterlimit="10"/>
<path d="M469.369 241.816C469.699 240.896 469.369 233.816 469.369 233.816C469.369 233.816 491.689 214.596 492.999 211.596" stroke="white" stroke-miterlimit="10"/>
<path d="M7 181.006C7 181.006 21.84 180.856 25.36 181.776C25.36 181.776 34.84 187.586 35.6 189.116L40.35 210.596" stroke="white" stroke-miterlimit="10"/>
<path d="M7 217.596C7 217.596 25.36 234.256 26.12 234.256L27.12 240.746" stroke="white" stroke-miterlimit="10"/>
</svg>

<svg width="500" height="375" fill="none" xmlns="http://www.w3.org/2000/svg"><path d="m493 283.426-19.13-28.89c-19.18-58.24-72.5-159.59-72.5-159.59-53.2-61-82.09-62.83-82.09-62.83-77.5-13.76-142.17 0-142.17 0-44.48 11.01-88.28 69.48-88.28 69.48-7.56 15.82-69 155.69-69 155.69L7 274.256" stroke="#fff" stroke-miterlimit="10"/><path d="M97.78 101.826s265.07 5.5 299 0c0 0 70.63 142.62 84.39 184.36 0 0-66.64 59.61-231.21 63.05 0 0-190.71-5.73-236.79-65.81 0 0 77.73-171.74 84.61-181.6ZM455.551 207.596l4.29-19.32s10.75-10.79 33.12-6M469.369 241.816c.33-.92 0-8 0-8s22.32-19.22 23.63-22.22M7 181.006s14.84-.15 18.36.77c0 0 9.48 5.81 10.24 7.34l4.75 21.48M7 217.596s18.36 16.66 19.12 16.66l1 6.49" stroke="#fff" stroke-miterlimit="10"/></svg>
